src/main/resources/icons/UIDesignerIcons/com/intellij/uiDesigner/icons/textArea.svg

<svg xmlns="http://www.w3.org/2000/svg" width="16" height="16" viewBox="0 0 16 16"><rect id="frame" width="16" height="16" fill="none"/><path fill="#9AA7B0" fill-opacity=".8" fill-rule="evenodd" d="M2 2h12v12H2V2zm1 1v10h10V3H3zm5.7 2.4V12H7.3V5.4H4.5V4h7v1.4H8.7z"/></svg>

<svg xmlns="http://www.w3.org/2000/svg" width="16" height="16" viewBox="0 0 16 16">
  <path fill="#9AA7B0" fill-opacity=".8" fill-rule="evenodd" d="M2,2 L14,2 L14,14 L2,14 L2,2 Z M3,3 L3,13 L13,13 L13,3 L3,3 Z M8.7,5.4 L8.7,12 L7.3,12 L7.3,5.4 L4.5,5.4 L4.5,4 L11.5,4 L11.5,5.4 L8.7,5.4 Z"/>
</svg>
